src/components/Icon/icons/dashboard.svg

<svg xmlns="http://www.w3.org/2000/svg" width="32" height="32" viewBox="0 0 32 32">
  <g fill="none" fill-rule="evenodd">
    <path fill="#B280F9" d="M11,20 C13.209139,20 15,21.790861 15,24 L15,28 C15,30.209139 13.209139,32 11,32 L4,32 C1.790861,32 2.705415e-16,30.209139 0,28 L0,24 C-2.705415e-16,21.790861 1.790861,20 4,20 L11,20 Z M28,0 C30.209139,-4.05812251e-16 32,1.790861 32,4 L32,9 C32,11.209139 30.209139,13 28,13 L21,13 C18.790861,13 17,11.209139 17,9 L17,4 C17,1.790861 18.790861,4.05812251e-16 21,0 L28,0 Z" opacity=".48"/>
    <path fill="#D3B7FB" d="M28,15 C30.209139,15 32,16.790861 32,19 L32,28 C32,30.209139 30.209139,32 28,32 L21,32 C18.790861,32 17,30.209139 17,28 L17,19 C17,16.790861 18.790861,15 21,15 L28,15 Z M11,0 C13.209139,-4.05812251e-16 15,1.790861 15,4 L15,14 C15,16.209139 13.209139,18 11,18 L4,18 C1.790861,18 2.705415e-16,16.209139 0,14 L0,4 C-2.705415e-16,1.790861 1.790861,4.05812251e-16 4,0 L11,0 Z"/>
  </g>
</svg>

<svg xmlns="http://www.w3.org/2000/svg" width="32" height="32" viewBox="0 0 32 32"><g fill="none" fill-rule="evenodd"><path fill="#B280F9" d="M11 20a4 4 0 014 4v4a4 4 0 01-4 4H4a4 4 0 01-4-4v-4a4 4 0 014-4h7zM28 0a4 4 0 014 4v5a4 4 0 01-4 4h-7a4 4 0 01-4-4V4a4 4 0 014-4h7z" opacity=".48"/><path fill="#D3B7FB" d="M28 15a4 4 0 014 4v9a4 4 0 01-4 4h-7a4 4 0 01-4-4v-9a4 4 0 014-4h7zM11 0a4 4 0 014 4v10a4 4 0 01-4 4H4a4 4 0 01-4-4V4a4 4 0 014-4h7z"/></g></svg>
